X:3
T:T202-  Mary Gray
S:Bremners Reels, c 1760
L:1/8
M:C
K:Gmixolydian
dGBG cF "tr"A2|dGBG gd"tr"B2|dGBG cF (AA/B/|d)cB"tr"A
G2(G/A/B)::\
DDFA AG"tr"A2|GGBd gd "tr"B2|DDFA cF "tr"A2|\
|({B/c/}d)cBAG2(G/A/B):|]

